svg/OSM-icons/man_made #fabe0b °373737 !label=enman made,deKünstliches/22043;man_made=mussel_raft;!label=enmussel raft,deMuschel- gitter.svg

<svg xmlns="http://www.w3.org/2000/svg" viewBox="0 0 580 580" enable-background="new 0 0 580 580"><path fill="#111" stroke="#eee" stroke-width="3.408" d="m66.28 1.768c-41.34 0-64.57 21.371-64.57 65.04v450.12c0 40.844 20.894 62.23 62.19 62.23h452.02c41.31 0 62.23-20.316 62.23-62.23v-450.12c0-42.601-20.923-65.04-63.52-65.04-.003 0-448.49-.143-448.35 0z"/><path fill="#fff" d="m528.59 110.7l1.206-9.378h-15.712l2.135-16.571h-9.817l-2.137 16.571h-66.771l2.152-16.571h-9.817l-2.154 16.571h-66.775l2.17-16.571h-9.815l-2.173 16.571h-66.772l2.187-16.571h-9.818l-2.189 16.571h-66.773l2.206-16.571h-9.821l-2.207 16.571h-66.772l2.222-16.571h-9.817l-2.225 16.571h-20.621l-1.263 9.378h20.625l-8.563 63.779h-20.642l-1.262 9.379h20.645l-8.563 63.779h-20.662l-1.261 9.379h20.666l-8.563 63.778h-20.684l-1.262 9.38h20.687l-8.563 63.779h-20.704l-1.262 9.379h20.707l-8.563 63.778h-20.725l-1.262 9.38h20.728l-2.519 18.759h9.874l2.516-18.759h67.12l-2.499 18.759h9.874l2.496-18.759h67.12l-2.479 18.759h9.873l2.477-18.759h67.12l-2.459 18.759h9.871l2.457-18.759h67.12l-2.439 18.759h9.874l2.437-18.759h67.12l-2.419 18.759h9.873l2.417-18.759h15.793l1.207-9.38h-15.792l8.218-63.778h15.777l1.206-9.379h-15.777l8.218-63.779h15.761l1.207-9.38h-15.761l8.218-63.778h15.746l1.207-9.379h-15.746l8.217-63.779h15.731l1.205-9.379h-15.728l8.217-63.779h15.716m-102.14 0l-8.293 63.779h-66.842l8.352-63.779h66.783m-161.46 136.94l8.418-63.779h66.85l-8.361 63.779h-66.907m65.68 9.379l-8.361 63.778h-66.974l8.418-63.778h66.917m-75.52-9.379h-66.908l8.487-63.779h66.849l-8.428 63.779m-1.239 9.379l-8.428 63.778h-66.975l8.487-63.778h66.916m-9.667 73.16l-8.428 63.779h-67.04l8.487-63.779h66.984m9.851 0h66.983l-8.36 63.779h-67.04l8.419-63.779m76.83 0h66.984l-8.293 63.779h-67.04l8.353-63.779m1.228-9.38l8.352-63.778h66.917l-8.293 63.778h-66.976m9.579-73.16l8.352-63.779h66.851l-8.293 63.779h-66.91m8.114-136.94l-8.361 63.779h-66.84l8.419-63.779h66.782m-76.6 0l-8.428 63.779h-66.84l8.486-63.779h66.782m-143.38 0h66.782l-8.496 63.779h-66.84l8.554-63.779m-9.812 73.16h66.85l-8.496 63.779h-66.907l8.553-63.779m-9.811 73.16h66.915l-8.495 63.778h-66.975l8.555-63.778m-9.812 73.16h66.983l-8.495 63.779h-67.04l8.554-63.779m-18.366 136.94l8.554-63.778h67.05l-8.495 63.778h-67.11m76.979 0l8.486-63.778h67.05l-8.428 63.778h-67.11m76.979 0l8.418-63.778h67.05l-8.359 63.778h-67.11m76.976 0l8.353-63.778h67.05l-8.294 63.778h-67.11m144.09 0h-67.11l8.284-63.778h67.05l-8.226 63.778m9.436-73.16h-67.04l8.284-63.779h66.982l-8.225 63.779m9.435-73.16h-66.974l8.284-63.778h66.915l-8.225 63.778m9.435-73.16h-66.905l8.285-63.779h66.847l-8.227 63.779m9.435-73.16h-66.838l8.285-63.779h66.779l-8.226 63.779"/></svg>

<?xml version="1.0" encoding="utf-8"?>
<!-- Generator: Adobe Illustrator 15.0.0, SVG Export Plug-In . SVG Version: 6.00 Build 0)  -->
<!DOCTYPE svg PUBLIC "-//W3C//DTD SVG 1.1//EN" "http://www.w3.org/Graphics/SVG/1.1/DTD/svg11.dtd">
<svg version="1.1" xmlns="http://www.w3.org/2000/svg" xmlns:xlink="http://www.w3.org/1999/xlink" x="0px" y="0px" width="580px"
	 height="580px" viewBox="0 0 580 580" enable-background="new 0 0 580 580" xml:space="preserve">
<g id="Layer_2">
	<g id="g1327">
		<path id="path1329" fill="#111111" stroke="#EEEEEE" stroke-width="3.408" d="M66.275,1.768
			c-41.335,0-64.571,21.371-64.571,65.036v450.123c0,40.844,20.894,62.229,62.192,62.229H515.92
			c41.307,0,62.229-20.316,62.229-62.229V66.804c0-42.601-20.923-65.036-63.522-65.036C514.624,1.768,66.133,1.625,66.275,1.768z"/>
	</g>
</g>
<g id="svg2" xmlns:inkscape="http://www.inkscape.org/namespaces/inkscape" xmlns:rdf="http://www.w3.org/1999/02/22-rdf-syntax-ns#" xmlns:svg="http://www.w3.org/2000/svg" xmlns:sodipodi="http://sodipodi.sourceforge.net/DTD/sodipodi-0.dtd" xmlns:cc="http://creativecommons.org/ns#" xmlns:dc="http://purl.org/dc/elements/1.1/" inkscape:output_extension="org.inkscape.output.svg.inkscape" inkscape:version="0.46" sodipodi:docname="waste_bin.svg" sodipodi:version="0.32">
	<path fill="#FFFFFF" d="M528.588,110.699l1.206-9.378h-15.712l2.135-16.571h-9.817l-2.137,16.571h-66.771l2.152-16.571h-9.817
		l-2.154,16.571h-66.775l2.17-16.571h-9.815l-2.173,16.571h-66.772l2.187-16.571h-9.818l-2.189,16.571h-66.773l2.206-16.571H200.1
		l-2.207,16.571h-66.772l2.222-16.571h-9.817l-2.225,16.571H100.68l-1.263,9.378h20.625l-8.563,63.779H90.837l-1.262,9.379h20.645
		l-8.563,63.779H80.995l-1.261,9.379h20.666l-8.563,63.778H71.153l-1.262,9.38h20.687l-8.563,63.779H61.311l-1.262,9.379h20.707
		l-8.563,63.778H51.468l-1.262,9.38h20.728l-2.519,18.759h9.874l2.516-18.759h67.118l-2.499,18.759h9.874l2.496-18.759h67.118
		l-2.479,18.759h9.873l2.477-18.759h67.118l-2.459,18.759h9.871l2.457-18.759h67.119l-2.439,18.759h9.874l2.437-18.759h67.116
		l-2.419,18.759h9.873l2.417-18.759h15.793l1.207-9.38h-15.792l8.218-63.778h15.777l1.206-9.379H476.38l8.218-63.779h15.761
		l1.207-9.38h-15.761l8.218-63.778h15.746l1.207-9.379H495.23l8.217-63.779h15.731l1.205-9.379h-15.728l8.217-63.779H528.588z
		 M426.451,110.699l-8.293,63.779h-66.842l8.352-63.779H426.451z M264.992,247.637l8.418-63.779h66.85l-8.361,63.779H264.992z
		 M330.67,257.016l-8.361,63.778h-66.974l8.418-63.778H330.67z M255.151,247.637h-66.908l8.487-63.779h66.849L255.151,247.637z
		 M253.912,257.016l-8.428,63.778h-66.975l8.487-63.778H253.912z M244.245,330.174l-8.428,63.779h-67.043l8.487-63.779H244.245z
		 M254.096,330.174h66.983l-8.36,63.779h-67.042L254.096,330.174z M330.929,330.174h66.984l-8.293,63.779h-67.044L330.929,330.174z
		 M332.157,320.794l8.352-63.778h66.917l-8.293,63.778H332.157z M341.736,247.637l8.352-63.779h66.851l-8.293,63.779H341.736z
		 M349.85,110.699l-8.361,63.779h-66.84l8.419-63.779H349.85z M273.247,110.699l-8.428,63.779h-66.84l8.486-63.779H273.247z
		 M129.863,110.699h66.782l-8.496,63.779h-66.84L129.863,110.699z M120.051,183.858h66.85l-8.496,63.779h-66.907L120.051,183.858z
		 M110.24,257.016h66.915l-8.495,63.778h-66.975L110.24,257.016z M100.428,330.174h66.983l-8.495,63.779H91.874L100.428,330.174z
		 M82.062,467.11l8.554-63.778h67.05l-8.495,63.778H82.062z M159.041,467.11l8.486-63.778h67.051l-8.428,63.778H159.041z
		 M236.02,467.11l8.418-63.778h67.051l-8.359,63.778H236.02z M312.996,467.11l8.353-63.778h67.053l-8.294,63.778H312.996z
		 M457.085,467.11h-67.107l8.284-63.778h67.049L457.085,467.11z M466.521,393.953h-67.041l8.284-63.779h66.982L466.521,393.953z
		 M475.956,320.794h-66.974l8.284-63.778h66.915L475.956,320.794z M485.391,247.637h-66.905l8.285-63.779h66.847L485.391,247.637z
		 M494.826,174.479h-66.838l8.285-63.779h66.779L494.826,174.479z"/>
</g>
</svg>
